X:148
T:Burn O' Craigie, The
S:Old Blind Dogs, 'Tall Tails'
Z:Nigel Gatherer
M:4/4
L:1/8
K:A
F2|E2 E>F E>FA>c|B>AB>c B>AF<A|E2 E>F E>FA>c|B>AB<c A2:|
(3ABc|d2 d>f e<cc>A|B>AB>c B>AF<E|d2 d>f e<cc>A|B>AB<c A2 (3ABc|
d2 d>f e<cc>A|B>AB>c B>AF<A|c<ee>f a>fe>c|B>AB>c A2|]
<end>
<start>
